X: 1
T: norsken
R: polska
M: 3/4
L: 1/8
K: Amaj
|:Ac/d/e f/g/a2 | ag/f/e dc2 | c2>d c2>d | B>A G/A/B/G/A2 |
A/B/c/d/e f/g/a2 | ag/f/e dc2 | c2>d c2>d | B>A G/A/B/G/A2 :|

